src/icons/sublime.svg

<svg xmlns="http://www.w3.org/2000/svg" style="isolation:isolate" viewBox="0 0 24 24"><defs><clipPath id="a"><path d="M0 0h24v24H0z"/></clipPath></defs><g clip-path="url(#a)"><path d="M11.232 13.667 6.87 12.252a.343.343 0 0 1-.221-.301l-.042-3.352a.331.331 0 0 1 .216-.3l10.279-3.288c.122-.039.22.032.22.16v3.351a.34.34 0 0 1-.219.303l-4.241 1.414 4.311 1.346c.122.038.22.172.22.299v3.304a.343.343 0 0 1-.217.304L6.87 18.988c-.12.042-.218-.029-.219-.155l-.021-3.449a.333.333 0 0 1 .217-.3l4.385-1.417z" fill-rule="evenodd" fill="#FFB74D"/></g></svg>

<?xml version="1.0" standalone="no"?><!-- Generator: Gravit.io --><svg xmlns="http://www.w3.org/2000/svg" xmlns:xlink="http://www.w3.org/1999/xlink" style="isolation:isolate" viewBox="0 0 24 24" width="24" height="24"><defs><clipPath id="_clipPath_00nNF19Pc5lxW8KxK5tS9TPz49LrTcL1"><rect width="24" height="24"/></clipPath></defs><g clip-path="url(#_clipPath_00nNF19Pc5lxW8KxK5tS9TPz49LrTcL1)"><path d=" M 11.232 13.667 L 6.87 12.252 C 6.75 12.213 6.651 12.078 6.649 11.951 L 6.607 8.599 C 6.606 8.472 6.702 8.338 6.823 8.299 L 17.102 5.011 C 17.224 4.972 17.322 5.043 17.322 5.171 L 17.322 8.522 C 17.322 8.649 17.224 8.785 17.103 8.825 L 12.862 10.239 L 17.173 11.585 C 17.295 11.623 17.393 11.757 17.393 11.884 L 17.393 15.188 C 17.393 15.315 17.296 15.451 17.176 15.492 L 6.87 18.988 C 6.75 19.03 6.652 18.959 6.651 18.833 L 6.63 15.384 C 6.629 15.257 6.727 15.123 6.847 15.084 L 11.232 13.667 Z " fill-rule="evenodd" fill="#FFB74D"/></g></svg>
